Newaita-dark/actions/symbolic/xapp-prefs-preview-symbolic.svg

<svg height="16" viewBox="0 0 16 16" width="16" xmlns="http://www.w3.org/2000/svg"><g fill="#e0e0e0"><path d="m5.117188 8.316406c-.1875-.003906-.375.019532-.550782.070313-.464844.128906-.851562.40625-1.1875.742187-.667968.664063-1.148437 1.585938-1.496094 2.484375-.347656.898438-.554687 1.742188-.554687 2.402344 0 .363281.292969.660156.65625.660156h11.90625c.363281 0 .660156-.296875.660156-.660156 0-1.429687-1.191406-2.667969-2.628906-3.289063-.71875-.3125-1.539063-.457031-2.355469-.285156-.5.109375-.992187.347656-1.429687.714844-.636719-1.371094-1.296875-2.207031-2.085938-2.609375-.300781-.152344-.621093-.230469-.933593-.230469zm0 0"/><path d="m10.585938 5.746094c.910156 0 1.652343.742187 1.652343 1.65625 0 .914062-.742187 1.652344-1.652343 1.652344-.914063 0-1.65625-.738282-1.65625-1.652344 0-.914063.742187-1.65625 1.65625-1.65625zm0 0"/><path d="m2.316406 1.449219c-.550781 0-.992187.441406-.992187.992187v5.953125h1.652343v-4.960937c0-.183594.148438-.332032.332032-.332032h9.261718c.183594 0 .328126.148438.328126.332032v4.960937h1.65625v-5.953125c0-.550781-.445313-.992187-.992188-.992187zm0 0"/></g></svg>

<?xml version="1.0" encoding="UTF-8"?>
<svg xmlns="http://www.w3.org/2000/svg" xmlns:xlink="http://www.w3.org/1999/xlink" width="16px" height="16px" viewBox="0 0 16 16" version="1.1">
<g id="surface1">
<path style=" stroke:none;fill-rule:nonzero;fill:rgb(87.843138%,87.843138%,87.843138%);fill-opacity:1;" d="M 5.117188 8.316406 C 4.929688 8.3125 4.742188 8.335938 4.566406 8.386719 C 4.101562 8.515625 3.714844 8.792969 3.378906 9.128906 C 2.710938 9.792969 2.230469 10.714844 1.882812 11.613281 C 1.535156 12.511719 1.328125 13.355469 1.328125 14.015625 C 1.328125 14.378906 1.621094 14.675781 1.984375 14.675781 L 13.890625 14.675781 C 14.253906 14.675781 14.550781 14.378906 14.550781 14.015625 C 14.550781 12.585938 13.359375 11.347656 11.921875 10.726562 C 11.203125 10.414062 10.382812 10.269531 9.566406 10.441406 C 9.066406 10.550781 8.574219 10.789062 8.136719 11.15625 C 7.5 9.785156 6.839844 8.949219 6.050781 8.546875 C 5.75 8.394531 5.429688 8.316406 5.117188 8.316406 Z M 5.117188 8.316406 "/>
<path style=" stroke:none;fill-rule:nonzero;fill:rgb(87.843138%,87.843138%,87.843138%);fill-opacity:1;" d="M 10.585938 5.746094 C 11.496094 5.746094 12.238281 6.488281 12.238281 7.402344 C 12.238281 8.316406 11.496094 9.054688 10.585938 9.054688 C 9.671875 9.054688 8.929688 8.316406 8.929688 7.402344 C 8.929688 6.488281 9.671875 5.746094 10.585938 5.746094 Z M 10.585938 5.746094 "/>
<path style=" stroke:none;fill-rule:nonzero;fill:rgb(87.843138%,87.843138%,87.843138%);fill-opacity:1;" d="M 2.316406 1.449219 C 1.765625 1.449219 1.324219 1.890625 1.324219 2.441406 L 1.324219 8.394531 L 2.976562 8.394531 L 2.976562 3.433594 C 2.976562 3.25 3.125 3.101562 3.308594 3.101562 L 12.570312 3.101562 C 12.753906 3.101562 12.898438 3.25 12.898438 3.433594 L 12.898438 8.394531 L 14.554688 8.394531 L 14.554688 2.441406 C 14.554688 1.890625 14.109375 1.449219 13.5625 1.449219 Z M 2.316406 1.449219 "/>
</g>
</svg>
